brandFactory_export/1.Light/Datacloud_1Light.svg

<?xml version="1.0" encoding="UTF-8"?>
<svg width="24px" height="24px" viewBox="0 0 24 24" version="1.1" xmlns="http://www.w3.org/2000/svg" xmlns:xlink="http://www.w3.org/1999/xlink">
    <title>1.Light/Datacloud_1Light</title>
    <g id="Symbols" stroke="none" stroke-width="1" fill="none" fill-rule="evenodd">
        <g id="1.Light/Datacloud_1Light" fill="#5CB615" fill-rule="nonzero">
            <path d="M17.4151261,15.610084 L16.9647059,15.6201681 L16.9647059,11.0621849 C16.9647059,10.1983193 16.292437,9.55294118 14.9579832,9.15294118 C13.1327731,8.60840336 10.0705882,8.60840336 8.25546218,9.15294118 C7.14285714,9.48235294 6.4907563,9.98655462 6.29915966,10.6521008 C6.25882353,10.7798319 6.23865546,10.9210084 6.23865546,11.0588235 L6.23865546,15.687395 C6.21848739,15.687395 6.19831933,15.6773109 6.18823529,15.6773109 L5.08571429,15.6773109 C3.8487395,15.6773109 1.00168067,15.2907563 1.00168067,11.6672269 C1.00168067,9.6302521 1.89243697,8.34957983 3.65042017,7.85210084 C3.86554622,7.79495798 4.01344538,7.6 4.01344538,7.37815126 L4.00336134,7.24705882 C4.00336134,1.43865546 9.11932773,0.991596639 10.692437,0.991596639 C11.5764706,0.991596639 16.0605042,1.18991597 17.1226891,5.13277311 C17.1865546,5.34453782 17.3747899,5.49243697 17.5932773,5.49915966 C19.1058824,5.5394958 22.6184895,6.11428571 22.6184895,10.5445378 C22.6218487,15.2537815 18.6386555,15.610084 17.4151261,15.610084 L17.4151261,15.610084 Z M7.30420168,10.8537815 C7.44537815,10.5647059 7.86554622,10.3092437 8.53781513,10.1109244 C9.36134454,9.86218487 10.4436975,9.73445378 11.610084,9.73445378 C12.7630252,9.73445378 13.8453782,9.86218487 14.6689076,10.1109244 C15.1697479,10.2588235 15.7512605,10.497479 15.912605,10.8672269 C15.7815126,11.1462185 15.3478992,11.4117647 14.6689076,11.610084 C13.0352941,12.097479 10.1848739,12.097479 8.54789916,11.610084 C7.86554622,11.3983193 7.43529412,11.1327731 7.30420168,10.8537815 Z M15.9630252,14.3798319 C15.8218487,14.6184874 15.4218487,14.9445378 14.6789916,15.1630252 C13.0352941,15.6504202 10.1848739,15.6504202 8.5512605,15.1630252 C7.77815126,14.9344538 7.37815126,14.6151261 7.24705882,14.389916 L7.24705882,12.1176471 C7.5697479,12.3058824 7.91260504,12.4571429 8.27226891,12.5647059 C9.17647059,12.8336134 10.3697479,12.9815126 11.6134454,12.9815126 C12.8672269,12.9815126 14.0605042,12.8336134 14.9647059,12.5647059 C15.3142857,12.4571429 15.6504202,12.312605 15.9663866,12.1277311 C15.9630252,12.1243697 15.9630252,14.3798319 15.9630252,14.3798319 L15.9630252,14.3798319 Z M15.9630252,17.9529412 C15.8218487,18.1915966 15.4218487,18.5176471 14.6789916,18.7361345 C13.0352941,19.2235294 10.1848739,19.2235294 8.55798319,18.7361345 C7.76470588,18.507563 7.37478992,18.1983193 7.24369748,17.9630252 L7.24369748,15.6806723 C7.53613445,15.8487395 7.86554622,15.9966387 8.26890756,16.1176471 C9.17310924,16.3865546 10.3663866,16.5344538 11.6201681,16.5344538 C12.8638655,16.5344538 14.0571429,16.3865546 14.9613445,16.1176471 C15.3142857,16.0134454 15.6504202,15.8621849 15.9630252,15.6705882 L15.9630252,17.9529412 Z M15.9630252,21.3008403 C15.9630252,21.7680672 15.2605042,22.0739496 14.6689076,22.2521008 C13.0218487,22.7394958 10.194958,22.7394958 8.53781513,22.2521008 C7.94621849,22.0739496 7.24369748,21.7647059 7.24369748,21.3008403 L7.24369748,19.2537815 C7.53613445,19.4218487 7.86554622,19.5731092 8.26890756,19.6907563 C9.17310924,19.9596639 10.3663866,20.107563 11.6201681,20.107563 C12.8638655,20.107563 14.0571429,19.9563025 14.9613445,19.6907563 C15.3142857,19.589916 15.6537815,19.4386555 15.9630252,19.2436975 L15.9630252,21.3008403 L15.9630252,21.3008403 Z M17.9966387,4.52773109 C16.5815126,0.218487395 11.6773109,0 10.692437,0 C9.41848739,0 3.1394958,0.336134454 3.00840336,7.01848739 C1.74453782,7.4789916 0,8.65882353 0,11.6672269 C0,15.3613445 2.62857143,16.6722689 5.08571429,16.6722689 L6.18823529,16.6722689 C6.20840336,16.6722689 6.21848739,16.6621849 6.23865546,16.6621849 L6.23865546,21.297479 C6.23865546,22.1613445 6.91092437,22.8067227 8.25546218,23.2033613 C9.16638655,23.4722689 10.3529412,23.6201681 11.6067227,23.6201681 C12.8504202,23.6201681 14.0436975,23.4722689 14.9579832,23.2033613 C16.292437,22.8067227 16.9647059,22.1613445 16.9647059,21.297479 L16.9647059,16.6117647 L17.4151261,16.6016807 C18.4571429,16.6016807 23.6235294,16.312605 23.6235294,10.5445378 C23.6235294,5.50252101 19.6907563,4.65546218 17.9966387,4.52773109 L17.9966387,4.52773109 Z" id="Datacloud_1Light"></path>
        </g>
    </g>
</svg>

<svg width="24" height="24" viewBox="0 0 24 24" xmlns="http://www.w3.org/2000/svg"><path d="M17.415 15.61l-.45.01v-4.558c0-.864-.673-1.51-2.007-1.91-1.825-.544-4.887-.544-6.703 0-1.112.33-1.764.835-1.956 1.5a1.37 1.37 0 00-.06.407v4.628c-.02 0-.04-.01-.05-.01H5.085c-1.237 0-4.084-.386-4.084-4.01 0-2.037.89-3.317 2.648-3.815a.49.49 0 00.363-.474l-.01-.13c0-5.81 5.116-6.256 6.69-6.256.883 0 5.368.198 6.43 4.14a.51.51 0 00.47.367c1.513.04 5.025.615 5.025 5.046.004 4.709-3.98 5.065-5.203 5.065zm-10.11-4.756c.14-.29.56-.545 1.233-.743.823-.249 1.906-.377 3.072-.377 1.153 0 2.235.128 3.059.377.5.148 1.082.386 1.244.756-.131.28-.565.545-1.244.743-1.634.487-4.484.487-6.121 0-.682-.212-1.113-.477-1.244-.756zm8.658 3.526c-.141.238-.541.565-1.284.783-1.644.487-4.494.487-6.128 0-.773-.229-1.173-.548-1.304-.773v-2.272c.323.188.666.34 1.025.447.904.269 2.098.417 3.341.417 1.254 0 2.448-.148 3.352-.417.35-.108.685-.252 1.001-.437-.003-.004-.003 2.252-.003 2.252zm0 3.573c-.141.239-.541.565-1.284.783-1.644.488-4.494.488-6.121 0-.793-.228-1.183-.538-1.314-.773v-2.282c.292.168.622.316 1.025.437.904.269 2.097.416 3.351.416 1.244 0 2.437-.147 3.341-.416.353-.105.69-.256 1.002-.447v2.282zm0 3.348c0 .467-.702.773-1.294.951-1.647.487-4.474.487-6.131 0-.592-.178-1.294-.487-1.294-.951v-2.047c.292.168.622.32 1.025.437.904.269 2.097.417 3.351.417 1.244 0 2.437-.152 3.341-.417.353-.101.693-.252 1.002-.447V21.3zm2.034-16.773C16.582.218 11.677 0 10.692 0 9.418 0 3.14.336 3.008 7.018 1.745 7.48 0 8.658 0 11.668c0 3.693 2.629 5.004 5.086 5.004h1.102c.02 0 .03-.01.05-.01v4.635c0 .864.673 1.51 2.017 1.906.911.27 2.098.417 3.352.417 1.243 0 2.437-.148 3.351-.417 1.334-.396 2.007-1.042 2.007-1.906v-4.685l.45-.01c1.042 0 6.209-.29 6.209-6.057 0-5.042-3.933-5.89-5.627-6.017z" fill="#5CB615" fill-rule="nonzero"/></svg>
